X:1
T:Monroe Stamp
T:Monroe Stomp
N:From the playing of Hiter Colvin (1900-1975, Lincoln Parish, Louisiana).
N:The record label gives the tune as "Monroe Stamp", and it is unknown if
N:this is the real title or a recording company mistake.
M:C|
L:1/8
R:Two-Step
D:Victor 40239-B (78 RPM), Hiter Colvin (1929).
D: https://www.slippery-hill.com/recording/monroe-stomp
Z:Transcribed by Andrew Kuntz
K:F
C2 |DC D2 FD F2|GF A2 dcAB| c2d2-dc A2|c6 C2|DCD2 FD F2|
GF A2 dcAB|c2 d2- dc D2|E6E2|C2[C2E2][C2E2][C2E2]|G2G2[G2B2][G2B2]|
[G2e2][G2e2]d2d2|B2B2G2E2|[C2E2][C2E2][C2E2][C2E2]|G2G2[G2B2]e2-|
e2d2-d2A2|[A6c6]C2|DC D2 FD F2|GF A2 dcAB| c2d2-dc A2|
[M:3/2]c3B c2[c2a2]-[ca]e g2 |[M:C|]d6 [d2f2]|B2d2-d[df][d2f2]|[d4g4][c3f3]e/c/ |
f2c2-c2fg|a6a2|d2cd- dc d2|e4 +slide+a3g|a/g/f- f2- f2||
"*"+slide+c'2-|c'2 c'2 +slide+a2+slide+a2|fd f2 dcA2|[A2c2]-[A2d2]-[Ad]cA2|[A6c6]a-c'-|c'2c'2 +slide+a2+slide+a2|
fd f2 dcA2|[A2c2]-[A2d2]-[Ad]cA2|B6 B2|CB,C2 [C2E2][C2E2]|[E2G2][E2G2][G2B2][G2B2]|
[G2e2][Ge]c d2d2|BAB2 G2E2|C2C2[CE]D[C2E2]|GFG2 [G2B2]d-e-|ee d2-d2A2|
[A6c6]C2|DCD2 FDF2|AF [F2A2] dcAB|c2d2-dcA2|[M:2/4] c3G |
[M:C|]F2a2- ag a2|d6.[d2f2]|B2d2- d[df][d2f2]|[d4g4][c3f3]e/c/ |
f2c2-c2fg|a6a2|d2cd- dc d2|e4 +slide+a3g|a/g/f- f2- f2||
P:Substitution
"*"a2-|c'2e'2a2c'2| fefc dcA2||

